X:303
T: Colonel McBain
R: reel
M: C
L: 1/8
K: Am
d |\
(c/d/e) (Ae) cAec | BdGd BGdB | (c/d/e) (Ae) cAec | BGEG A3 :|
(ce).g.e (ce).g.e | dedc cBAG | Aaab c'bag | ac'ag a2a2 |
gc'ge cege | dedc BcdB | ceag aedf | ecdB A2A |]

